round/svg/wb_sunny.svg

<svg xmlns="http://www.w3.org/2000/svg" width="24" height="24"><path fill="none" d="M0 0h24v24H0V0z"/><g fill="currentColor"><path d="M6.05 4.14l-.39-.39a.993.993 0 0 0-1.4 0l-.01.01a.984.984 0 0 0 0 1.4l.39.39c.39.39 1.01.39 1.4 0l.01-.01a.984.984 0 0 0 0-1.4zM3.01 10.5H1.99c-.55 0-.99.44-.99.99v.01c0 .55.44.99.99.99H3c.56.01 1-.43 1-.98v-.01c0-.56-.44-1-.99-1zm9-9.95H12c-.56 0-1 .44-1 .99v.96c0 .55.44.99.99.99H12c.56.01 1-.43 1-.98v-.97c0-.55-.44-.99-.99-.99zm7.74 3.21c-.39-.39-1.02-.39-1.41-.01l-.39.39a.984.984 0 0 0 0 1.4l.01.01c.39.39 1.02.39 1.4 0l.39-.39a.984.984 0 0 0 0-1.4zm-1.81 15.1l.39.39a.996.996 0 1 0 1.41-1.41l-.39-.39a.993.993 0 0 0-1.4 0c-.4.4-.4 1.02-.01 1.41zM20 11.49v.01c0 .55.44.99.99.99H22c.55 0 .99-.44.99-.99v-.01c0-.55-.44-.99-.99-.99h-1.01c-.55 0-.99.44-.99.99zM12 5.5c-3.31 0-6 2.69-6 6s2.69 6 6 6 6-2.69 6-6-2.69-6-6-6zm-.01 16.95H12c.55 0 .99-.44.99-.99v-.96c0-.55-.44-.99-.99-.99h-.01c-.55 0-.99.44-.99.99v.96c0 .55.44.99.99.99zm-7.74-3.21c.39.39 1.02.39 1.41 0l.39-.39a.993.993 0 0 0 0-1.4l-.01-.01a.996.996 0 0 0-1.41 0l-.39.39c-.38.4-.38 1.02.01 1.41z"/></g></svg>

<?xml version="1.0" encoding="utf-8"?>
<!-- Generator: Adobe Illustrator 19.1.0, SVG Export Plug-In . SVG Version: 6.00 Build 0)  -->
<svg version="1.1" xmlns="http://www.w3.org/2000/svg" xmlns:xlink="http://www.w3.org/1999/xlink" x="0px" y="0px" width="24px"
	 height="24px" viewBox="0 0 24 24" enable-background="new 0 0 24 24" xml:space="preserve">
<g id="Bounding_Boxes">
	<g id="ui_x5F_spec_x5F_header_copy_2">
	</g>
	<path fill="none" d="M0,0h24v24H0V0z"/>
</g>
<g id="Rounded" fill="currentColor">
	<g id="ui_x5F_spec_x5F_header_copy_6">
	</g>
	<path d="M6.05,4.14L5.66,3.75c-0.39-0.39-1.02-0.38-1.4,0L4.25,3.76c-0.39,0.39-0.39,1.02,0,1.4l0.39,0.39
		c0.39,0.39,1.01,0.39,1.4,0l0.01-0.01C6.44,5.16,6.44,4.52,6.05,4.14z M3.01,10.5H1.99C1.44,10.5,1,10.94,1,11.49v0.01
		c0,0.55,0.44,0.99,0.99,0.99h1.01C3.56,12.5,4,12.06,4,11.51v-0.01C4,10.94,3.56,10.5,3.01,10.5z M12.01,0.55h-0.01
		C11.44,0.55,11,0.99,11,1.54v0.96c0,0.55,0.44,0.99,0.99,0.99h0.01C12.56,3.5,13,3.06,13,2.51V1.54C13,0.99,12.56,0.55,12.01,0.55z
		 M19.75,3.76L19.75,3.76c-0.39-0.39-1.02-0.39-1.41-0.01l-0.39,0.39c-0.39,0.39-0.39,1.02,0,1.4l0.01,0.01
		c0.39,0.39,1.02,0.39,1.4,0l0.39-0.39C20.14,4.77,20.14,4.15,19.75,3.76z M17.94,18.86l0.39,0.39c0.39,0.39,1.02,0.39,1.41,0l0,0
		c0.39-0.39,0.39-1.02,0-1.41l-0.39-0.39c-0.39-0.39-1.02-0.38-1.4,0h0C17.55,17.85,17.55,18.47,17.94,18.86z M20,11.49v0.01
		c0,0.55,0.44,0.99,0.99,0.99h1.01c0.55,0,0.99-0.44,0.99-0.99v-0.01c0-0.55-0.44-0.99-0.99-0.99h-1.01
		C20.44,10.5,20,10.94,20,11.49z M12,5.5c-3.31,0-6,2.69-6,6s2.69,6,6,6s6-2.69,6-6S15.31,5.5,12,5.5z M11.99,22.45h0.01
		c0.55,0,0.99-0.44,0.99-0.99v-0.96c0-0.55-0.44-0.99-0.99-0.99h-0.01c-0.55,0-0.99,0.44-0.99,0.99v0.96
		C11,22.01,11.44,22.45,11.99,22.45z M4.25,19.24L4.25,19.24c0.39,0.39,1.02,0.39,1.41,0l0.39-0.39c0.39-0.39,0.38-1.02,0-1.4
		l-0.01-0.01c-0.39-0.39-1.02-0.39-1.41,0l-0.39,0.39C3.86,18.23,3.86,18.85,4.25,19.24z"/>
</g>
</svg>
